X:19018
T:Soldier's Joy
T:The King's Head
R:Reel
C:Trad.
O:England/Scotland/Ireland
M:4/4
L:1/8
Q:1/4=180
K:D
FG|"D"AFDF AFDF|A2d2 d2cB|AFDF AFDF|"A"G2E2 E2FG|
"D"AFDF AFDF|A2d2 d2 e2|fafd "A"egec|"D"d2d2 d2:|
|:de|"D"f2fd fagf|"A"e2ec egfe|"D"f2fd fagf|"A"edcB A2de|
"D"fdfd fagf|"A"ecec egfe|"D"fafd "A"egec|"D"d2d2 d2:|

